X: 1
T: Banks Of Kellswater, The
M: 4/4
L: 1/8
R: hornpipe
K: Dmaj
AG|:FD F2 AF A2|dc B2 AF A2|BG E2 E2 FG|AF D2 D2 AG|
FD F2 AF A2|dc B2 AF A2|Bc d2 e/2d/2e c2|df d2 d4:|
fd f2 fd f2|ed e2 ed e2|fd f2 fd f2|ec A2 A2 AG|
FD F2 AF A2|dc B2 AF A2|Bc d2 e/2d/2e c2|df d2 d4:|
